X:075
T:My Lady TS.075
M:2/4
L:1/8
Q:1/4=120
S:Thomas Sands’ MS,1810,Lincolnshire
R:quick step
O:England;Lincolnshire
Z:vmp.Ruairidh Greig, 2011
K:C
G|c2ce|d2df|eg g/f/e/d/|c/B/c/d/ cG|c2ce|d2df|eg g/f/e/d/|c2z:|
|:z|zgeg|zafa|zfdf|zgeg|zc’ge|eg g/f/e/d/|c2z:|
|:z|G2EF|G2Ge|f2fd|e2ec|cB Bd|c2g2|agfe|d2z:|
|:z|f4|e4|ff fd|ee ec|aa af|gc’ af|ed/c/ dc/B/|c2″rest added”z:|]

